X:1
T:Rain Drops
T:Rain Drops
T:(Novellete)
T:By PETE WENDLING and MAX KORTLANDER 
T:Copyright 1924 by pete Wendling &amp; Max Kortlander
T:Copyright 1924 by pete Wendling &amp; Max Kortlander
T:Copyright 1924 by pete Wendling &amp; Max Kortlander
T:Copyright 1924 by pete Wendling &amp; Max Kortlander
C:By PETE WENDLING and MAX KORTLANDER
Z:Copyright 1924 by pete Wendling & Max Kortlander
%%score { ( 1 4 ) | ( 2 3 5 ) }
L:1/8
Q:1/4=120
M:3/4
K:Gb
V:1 treble nm="Piano" snm="Pno."
V:4 treble 
V:2 treble 
V:3 treble 
V:5 treble 
V:1
"^Valse moderato"!mp! ([^c=e][=df] [ce][df] [ce][df] | !tenuto![=G_B]6) | %2
 ([=B=d][=c!courtesy!_e] [Bd][ce] [Bd][ce] | !tenuto![=F_A]6) || %4
S!mp! (!arpeggio![DGBd]2 !arpeggio![EGBe]2 !arpeggio![GBdg]2) | !tenuto!a6 | %6
 (!arpeggio![DGBd]2 !arpeggio![EGBe]2 !arpeggio![GBdg]2) | !tenuto!a6 | (!>!=ab =de) (!>!ab | %9
 =de) (!>!=ab =de) | _a6- | a z{/F} ((!>![CE]2 [CD]2)) | %12
 (!arpeggio![DGBd]2 !arpeggio![EGBe]2 !arpeggio![GBdg]2) | !tenuto!a6 | %14
 (!arpeggio![DGBd]2 !arpeggio![EGBe]2 !arpeggio![GBdg]2) | !tenuto!b6 | %16
 (!>!=AB[Q:1/4=125] =DE) (!>!AB |[Q:1/4=130] =DE) (!>!=AB[Q:1/4=135] =DE) | %18
[Q:1/4=140] (!tenuto!A6[Q:1/4=130] |[Q:1/4=125]"_Fine" !tenuto!!fermata!G4)!fine! ||!mf! D2 || %21
[Q:1/4=90] (6:4:6!>!=A,/B,/D/=D/E/G/ (6:4:6!>!=A/B/_d/=d/e/g/ (6:4:6(!>!=a/b/_d'/=d'/e'/g'/ | %22
 !>!!tenuto!a'4- a')D | %23
 (6:4:6!>!=A,/B,/D/=D/E/G/ (6:4:6!>!=A/B/_d/=d/e/g/ (6:4:6!>!=a/b/_d'/=d'/e'/g'/ | !>!!tenuto!a'6 | %25
!f!!8va(! =a'/4b'/4d''/4e''/4f''/4e''/4d''/4b'/4 =d'/4e'/4g'/4_a'/4b'/4a'/4g'/4e'/4!8va)!"^loco" =a/4b/4_d'/4e'/4f'/4e'/4d'/4b/4 | %26
 =d/4e/4g/4a/4b/4a/4g/4e/4 =A/4B/4_d/4e/4f/4e/4d/4B/4!>(! =D/4E/4G/4_A/4B/4A/4G/4!>)!!mp!E/4 | %27
 (!tenuto!A6- | A(F!>(! [CE]2 [CD]2))!>)! | %29
[Q:1/4=90]"_Tempo I" (6:4:6!>!=A,/B,/D/=D/E/G/ (6:4:6!>!=A/B/_d/=d/e/g/ (6:4:6(!>!=a/b/_d'/=d'/e'/g'/ | %30
 !>!!tenuto!a'4- a')D | %31
 (6:4:6!>!=A,/B,/D/=D/E/G/ (6:4:6!>!=A/B/_d/=d/e/g/ (6:4:6!>!=a/b/_d'/=d'/e'/g'/ | !>!!tenuto!a'6 | %33
!f!!8va(! =a'/4b'/4d''/4e''/4f''/4e''/4d''/4b'/4 =d'/4e'/4g'/4_a'/4b'/4a'/4g'/4e'/4!8va)!"^loco" =a/4b/4_d'/4e'/4f'/4e'/4d'/4b/4 | %34
 =d/4e/4g/4a/4b/4a/4g/4e/4 =A/4B/4_d/4e/4f/4e/4d/4B/4!>(! =D/4E/4G/4_A/4B/4A/4G/4!>)!!mp!E/4 | %35
"^rall."!mp! (A6 | !fermata![B,DG]4) D2 || %37
[Q:1/4=90]"^Tempo I" (6:4:6!>!=A,/B,/D/=D/E/G/ (6:4:6!>!=A/B/_d/=d/e/g/ (6:4:6!>!=a/b/_d'/=d'/e'/g'/ | %38
!8va(! (6:8:6a'/4f''/4e''/4d''/4c''/4_f'/4!8va)!"^loco" (6:8:6e'/4d'/4c'/4_f/4e/4d/4 (6:8:6c/4F/4E/4D/4C/4A,/4 | %39
 (6:4:6!>!=A,/B,/D/=D/E/G/ (6:4:6!>!=A/B/_d/=d/e/g/ (6:4:6!>!=a/b/_d'/=d'/e'/g'/ | %40
!8va(! (6:8:6a'/4f''/4e''/4d''/4c''/4_f'/4!8va)!"^loco" (6:8:6e'/4d'/4c'/4_f/4e/4d/4 (6:8:6c/4F/4E/4D/4C/4A,/4 | %41
!8va(! (=a'/4b'/4d''/4e''/4f''/4e''/4d''/4b'/4) (=d'/4e'/4g'/4_a'/4b'/4a'/4g'/4e'/4)!8va)!"^loco" (=a/4b/4_d'/4e'/4f'/4e'/4d'/4b/4) | %42
 =d/4e/4g/4a/4b/4a/4g/4e/4!<(! =A/4B/4_d/4e/4f/4e/4d/4B/4!<)! =D/4E/4G/4_A/4B/4A/4G/4"_rall."E/4 | %43
 (!tenuto!A6- | A(F!>(! [CE]2 [CD]2))!>)! | %45
 (6:4:6=A,/B,/D/=D/E/G/ (6:4:6=A/B/_d/=d/e/g/ (6:4:6=a/b/_d'/=d'/e'/g'/ | %46
!8va(! (6:8:6a'/4f''/4e''/4d''/4c''/4_f'/4!8va)!"^loco" (6:8:6e'/4d'/4c'/4_f/4e/4d/4 (6:8:6c/4F/4E/4D/4C/4A,/4 | %47
 (6:4:6=A,/B,/D/=D/E/G/ (6:4:6=A/B/_d/=d/e/g/ (6:4:6=a/b/_d'/=d'/e'/g'/ | %48
!8va(! (6:8:6b'/4=c''/4b'/4a'/4f'/4=d'/4!8va)!"^loco" (6:8:6b/4=c'/4b/4a/4f/4=d/4 (6:8:6B/4=c/4B/4A/4F/4=D/4 | %49
!8va(! ((=a'/4b'/4d''/4e''/4f''/4e''/4d''/4b'/4) (=d'/4e'/4g'/4_a'/4b'/4a'/4g'/4e'/4)!8va)!"^loco" (=a/4b/4_d'/4e'/4f'/4e'/4d'/4b/4) | %50
 =d/4e/4g/4a/4b/4a/4g/4e/4 =A/4B/4_d/4e/4f/4e/4d/4B/4 =D/4E/4G/4_A/4B/4A/4G/4E/4) | %51
!pp! (!tenuto!A6 | !fermata!G4) z2 || %53
!ff![Q:1/4=110]"^Grandioso" !arpeggio!!>!!tenuto![DGBd]2 !arpeggio!!>!!tenuto![EGBe]2!<(! !arpeggio!!>!!tenuto![GBdg]2 | %54
 !arpeggio!!>!!tenuto![Acea]6!<)! | %55
 !arpeggio!!tenuto![DGBd]2 !arpeggio!!tenuto![EGBe]2 !arpeggio!!>!!tenuto![GBdg]2 | !>!!tenuto!b6 | %57
"_accel""^L.H."!fff! z"^R.H." !>![bb']z!>![ee']z!>![Bb] | z !>![Ee]z!>![B,B]z!>!E | %59
"^rall." ((!>!!tenuto![__D__E_G]6 | !>!!tenuto![_C_D=F]6))!D.S.! |] %61
V:2
 (=G!courtesy!_A GA GA) |[K:bass] !arpeggio!!tenuto![E,=G,!courtesy!_D]6[K:treble] | (=F_G FG FG) | %3
[K:bass] !arpeggio!!tenuto![D,F,!courtesy!_C]6[K:treble] || %4
[K:bass] !arpeggio![F,,D,B,]2"^legato" !arpeggio!!tenuto![D,G,B,]4 | %5
 !arpeggio![D,,A,,F,]2{/E} (G2 F2) | !arpeggio![F,,D,B,]2 !arpeggio!!tenuto![D,G,B,]4 | %7
 !arpeggio![D,,A,,F,]2{/E} (G2 F2) | %8
[K:treble] ((!>![B,DE=G]2"^cresc. accel" .[=A,CE_G])) z ((!>![B,DE=G]2 | %9
 .[=A,CEG])) z ((!>![B,DE=G]2 .[A,CE_G])) z |[K:bass] !arpeggio![D,,A,,F,]2{/E} (!>!G2 .F2) | %11
"^dim." !^!D,, z (!>!G,2 F,2) | !arpeggio![F,,D,B,]2"^poco rubato" !arpeggio!!tenuto![D,G,B,]4 | %13
 !arpeggio![D,,A,,F,]2{/E} (G2 F2) | !arpeggio![F,,D,B,]2 !arpeggio!!tenuto![D,G,B,]4 | %15
 [B,,,B,,]2 ((!>![B,=DG]2 .[A,DF]2)) |"^accel" ((!>![B,,=G,]2 [A,,_G,])) z ((!>![B,,=G,]2 | %17
 [A,,G,])) z ((!>![B,,=G,]2 [A,,_G,])) z |"^rall." [D,,D,]2 (G,2 F,2) | %19
 [G,,G,]2!8vb(! !^!G,,,2!8vb)! || z2 || F,,2 !arpeggio![D,G,B,]2 !arpeggio![B,DG]2 | %22
 D,,2 ((!>![G,CE]2 .[F,CD]))"^dim." z |"^accel." F,,2 !arpeggio![D,G,B,]2 !arpeggio![B,DG]2 | %24
"^dim." D,,2 ((!>![G,CE]2 .[F,CD]))"^dim." z | %25
[K:treble] !>![e=gb!courtesy!_d'] z !>![!courtesy!_A=ce!courtesy!_g] z !>![E=GBd] z | %26
 !>![A,=CE_G]"^dim." z[K:bass] !>![E,=G,B,!courtesy!_D] z !>![A,,=C,E,_G,] z | %27
 z2 (!>!G,2"^rall." F,2) | z (A, G,2 F,2) | F,,2 !arpeggio![D,G,B,]2 !arpeggio![B,DG]2 | %30
 D,,2 ((!>![G,CE]2 .[F,CD]))"^dim." z |"^accel." F,,2 !arpeggio![D,G,B,]2 !arpeggio![B,DG]2 | %32
"^dim." D,,2 ((!>![G,CE]2 .[F,CD]))"^dim." z | %33
[K:treble] !>![e=gb!courtesy!_d'] z !>![!courtesy!_A=ce!courtesy!_g] z !>![E=GBd] z | %34
 !>![A,=CE_G]"^dim." z[K:bass] !>![E,=G,B,!courtesy!_D] z !>![A,,=C,E,_G,] z | z2 G,2 F,2 | %36
 [G,,G,]2 !fermata!G,,2 z2 || (D,2 E,2 G,2 | !tenuto!A,4)[K:treble] x2 |[K:bass] (D,2 E,2 G,2 | %40
 !tenuto!A,4)[K:treble][K:bass] x2 | %41
[K:treble] !arpeggio!!>![e=gb!courtesy!_d'] z !arpeggio!!>![!courtesy!_A=ce!courtesy!_g] z !arpeggio!!>![E=GBd] z | %42
 !arpeggio!!>![A,=CE_G] z[K:bass] !arpeggio![E,=G,B,!courtesy!_D] z !arpeggio![A,,=C,E,_G,] z | %43
 z2 (!>!G,2"^dim." F,2) | z (A, G,2 F,2) | (D,2 E,2 G,2 | !tenuto!A,4)[K:treble] x2 | %47
[K:bass] (D,2 E,2 G,2 | !tenuto!A,4)[K:treble][K:bass] x2 | %49
 !>![e=gbd'] z !>![A=ce_g] z !>![E=GBd] z | %50
 !>![A,=CE_G] z[K:bass] [E,=G,B,_D] z !>![A,,=C,E,_G,] z | z2 (G,2 F,2) | %52
 [G,,G,]2 !fermata!G,,,4 || %53
 !>![G,,,G,,]!>![D,G,B,]"^very broad" !>![D,G,B,]!>![D,G,B,] !>![D,G,B,]!>![D,G,B,] | %54
 !>![D,,D,]!>![D,F,C] !>![D,F,C]!>![D,F,C] !>![D,F,C]!>![D,F,C] | %55
 !>![G,,,G,,]!>![D,G,B,] !>![D,G,B,]!>![D,G,B,] !>![D,G,B,]!>![D,G,B,] | %56
 !>![B,,,B,,]!>![B,=DG] !>![B,DG]!>![B,DG] !>![B,DG]!>![B,DG] | x6 | %58
 !>![=D,=D]z!>![=A,,=A,]z!>![=D,,=D,] z | _G,6[K:treble] |[K:bass] =F,6[K:treble][K:bass] |] %61
V:3
 B,6 |[K:bass] x2[K:treble] .e z .e' z | A,6 |[K:bass] x2[K:treble] .d z .d' z ||[K:bass] x6 | x6 | %6
 x6 | x6 |[K:treble] x6 | x6 |[K:bass] x6 | x2 !tenuto!D,4 | x6 | x6 | x6 | x6 | x6 | x6 | x6 | %19
 x2!8vb(! x2!8vb)! || x2 || x6 | x6 | x6 | x6 |[K:treble] x6 | x2[K:bass] x4 | !tenuto!D,,6 | %28
 !tenuto!D,,6 | x6 | x6 | x6 | x6 |[K:treble] x6 | x2[K:bass] x4 | !tenuto!D,,6 | x6 || %37
 (!tenuto!G,,6 | !tenuto!D,6)[K:treble] |[K:bass] (!tenuto!G,,6 | !tenuto!D,6)[K:treble][K:bass] | %41
[K:treble] x6 | x2[K:bass] x4 | !tenuto!D,,6 | !tenuto!D,,6 | (!tenuto!G,,6 | %46
 !tenuto!D,6)[K:treble] |[K:bass] (!tenuto!G,,6 | !tenuto!D,6)[K:treble][K:bass] | x6 | %50
 x2[K:bass] x4 | D,,6 | x6 || x6 | x6 | x6 | x6 | x6 | x5 E, | %59
 (!>!!tenuto![__E,,__B,,]6[K:treble] |[K:bass] !>!!tenuto![__D,,__A,,]6)[K:treble][K:bass] |] %61
V:4
 x6 | x6 | x6 | x6 || x6 | !arpeggio![Ace]4 [Acd]2 | x6 | !arpeggio![Ace]4 [Acd]2 | %8
 (!>!!courtesy!_d2 c) z (!>!!courtesy!_d2 | c) z (!>!!courtesy!_d2 c) z | z2 !>![A_ce]2 .[Acd]2- | %11
 [Acd] x5 | x6 | !arpeggio![Ace]4 [Acd]2 | x6 | !arpeggio![B=dg]4 .[Bdf]2 | (_D2 =C) z (_D2 | %17
 =C) z (_D2 C) z | z2!>(! (([_CE]2 [CD]2)) | [B,D]4!>)! || x2 || x6 | x6 | x6 | x6 | %25
!8va(! x4!8va)! x2 | x6 | z2 [CE]2 [CD]2- | [CD] z x4 | x6 | x6 | x6 | x6 |!8va(! x4!8va)! x2 | %34
 x6 | z2 (([!courtesy!_CE]2 [CD]2)) | x6 || x6 |!8va(! x2!8va)! x4 | x6 |!8va(! x2!8va)! x4 | %41
!8va(! x4!8va)! x2 | x6 | z2 [CE]2 [CD]2- | [CD] z x4 | x6 |!8va(! x2!8va)! x4 | x6 | %48
!8va(! x2!8va)! x4 |!8va(! x4!8va)! x2 | x6 | z2 (([CE]2 [CD]2)) | !fermata![B,D]4 x2 || x6 | x6 | %55
 x6 | ([B=dg]4 .[Bdf]2) | !>![=A=a]z!>![=D=d]z!>![=A,=A] x | x6 | x6 | x6 |] %61
V:5
 x6 |[K:bass] x2[K:treble] x4 | x6 |[K:bass] x2[K:treble] x4 ||[K:bass] x6 | x6 | x6 | x6 | %8
[K:treble] x6 | x6 |[K:bass] x6 | x6 | x6 | x6 | x6 | x6 | x6 | x6 | x6 | x2!8vb(! x2!8vb)! || %20
 x2 || x6 | x6 | x6 | x6 |[K:treble] x6 | x2[K:bass] x4 | x6 | x6 | x6 | x6 | x6 | x6 | %33
[K:treble] x6 | x2[K:bass] x4 | x6 | x6 || x6 | %38
 x2[K:treble] .[DFA!courtesy!_c] z !arpeggio!.[Bdfa] z |[K:bass] x6 | %40
 x2[K:treble] .[DFA!courtesy!_c] z[K:bass] !arpeggio!.[D,F,A,C] z |[K:treble] x6 | x2[K:bass] x4 | %43
 x6 | x6 | x6 | x2[K:treble] !arpeggio!.[DFA!courtesy!_c] z !arpeggio!.[Bdfa] z |[K:bass] x6 | %48
 x2[K:treble] .[FAB=d] z[K:bass] !arpeggio!.[F,A,B,=D] z | x6 | x2[K:bass] x4 | x6 | x6 || x6 | %54
 x6 | x6 | x6 | x6 | x6 | x2[K:treble] .__b z .__g' z | %60
[K:bass] x2[K:treble] ._a"_D.S. al      Fine" z .!courtesy!_d'[K:bass] z |] %61

